X: 29534
T: No Way Out
R: jig
M: 6/8
K: Eminor
B,3|:EGB e2d|{c}d3 B3|EFG A2G|{F}D3 E3|
EGB e2d|{c}d3 B3|AGF G2F|1 E3 B,3:|2 E3 B3||
|:efg b2a|{g}a3 f3|de/f/g a2g|{f}d3 e3|
efg b2a|{g}a3 b3|c'b/a/g f2g|1 e3 B3:|2 e3 B,3||

